X:82
T: IN DER EICHE DA WOHNET MEIN LIEBCHEN
N: E0049A
O: Europa, Mitteleuropa, Deutschland, Ost - Friesland
R: erzaehlendes Volks - Lied, Sage, Mord
M: 4/4
L: 1/8
K: G
GA | B2BBB2AB | c2A2z2
AB | c2ccc2Bc | d2B2z2
Bc | d2ddcBAG | e2e2e2
ge | d2BBd2cc | B6

@@@ Tune index: 3732
